X: 2
T: Morrison's
R: jig
M: 6/8
L: 1/8
K: Emin
|:TE3 BEB|EBE AFD|TE3 BEB|edB AFD|
E3 BEB|EBE AFD|EBE BEB|edB AFD:||
eee fee|aee fee|efe fef|a2 g fed|
eee fee|bee fee|e/2f/2ge fde|dcB AFD||
eee fee|bee fee|bee fef|a2 f def|
gba/2g/2 fag/2f/2|egf/2e/2 def/2g/2|egf/2e/2 d2 A|BAG FED||


Tune 71	Setting 27472

